!! 00000] TT[00
!! NN
!!!OTL: Zhigan yixin dui yiren
!!!ARE: Asia, China, Fujian, Liancheng
!! Ethnic Group: Han
!! II, 609
!!!SCT: C0269
!!!YEM: Copyright 1995, estate of Helmut Schaffrath.
**kern
*ICvox
*Ivox
!! Mixed meters:  2/4; 1/4
*M1/4
*k[b-]
*F:
{8cc
8cc
4cc
=1
8g
8cc
4g
=2
8g
8f
4f
=3
8c
8r}
=4
*M2/4
{4c
8g
8cc
=5
8g
8f
4g
=6
4f
16g
16f
16g
16f
=7
[2f
=8
4f]
4f
=9
4c
4r}
=10
{8cc
8cc
4cc
=11
8g
8g
4f
=12
4c
4c
=13
*M1/4
8e
8r}
=14
*M2/4
{4c
4c
=15
4f
[4g
=16
4g]
4f
=17
4g
8g
8f
=18
[2f
=19
4f]
4f
=20
4c
4r}
==
!!!AGN: Shange, Fudi shange. Biaoda aiqing
!! Wenig Verzierungen.
!!!ONB: ESAC (Essen Associative Code) Database: CHINA
!!!AMT: irregular
!!!AIN: vox
!!!EED: Helmut Schaffrath
!!!EEV: 1.0
*-
!!!ONB: Tied note syntax fixed by Craig Sapp, 2004/05/03/
